!!!!SEGMENT: pl-cz--i-155--014_anonim--landler-7.krn
!!!cenid: 18xx:2523
!!!COM: Anonim
!!!COM-rism: pe30004985
!!!CDT:
!!!CNT:
!!!OTL: Ländler 7
!!!PDT:
!!!AGN: Secular
!!!SMS-siglum: PL-CZ
!!!SMS-shelfmark: I-155
!!!NIFC-rismID: 1001012543
!!!URL-scan: http://repozytorium.nifc.pl/skany/pl-cz-nut--i-155
!!!ONB-nifc: UWAGA: 10 krótkich Landler numerowanych na pięcioliniach (nr 1-10, odpowiednio 008-017). m.in skan 0026. Uwaga: 5 partii
!!!SMS-variant:
!!!SMS-altvar:
**kern	**kern	**kern	**kern	**kern
*part5	*part4	*part3	*part2	*part1
*staff5	*staff4	*staff3	*staff2	*staff1
*I"Corno Secondo	*I"Corno Primo.	*I"Fagotto	*I"Clarinetto 2do	*I"Clarinetto Primo
*I'cor 2	*I'cor 1	*I'fag	*I'cl 2	*I'cl 1
*clefG2	*clefG2	*clefF4	*clefG2	*clefG2
*ITrd5c9	*ITrd5c9	*	*ITrd1c2	*ITrd1c2
*k[b-]	*k[b-]	*k[b-]	*k[b-]	*k[b-]
*M3/4	*M3/4	*M3/4	*M3/4	*M3/4
*	*	*	*2\right	*2\right
!	!	!	!	!LO:TX:t=P:problem:all\right:global
4ryy	4ryy	4ryy	8a\L	8cc\L
.	.	.	8cc\J	8ff\J
=1	=1	=1	=1	=1
2.ryy	2.ryy	2.ryy	4ff\	4aa\
.	.	.	8a\L	8cc\L
.	.	.	8cc\J	8ff\J
.	.	.	4ff\	4aa\
=2	=2	=2	=2	=2
2.ryy	2.ryy	2.ryy	8cc\L	8ee\L
.	.	.	8ee\	8gg\
.	.	.	8gg\	8bb-\
.	.	.	8ff\	8aa\
.	.	.	8ee\	8gg\
.	.	.	8dd\J	8ff\J
=3	=3	=3	=3	=3
.	.	.	.	16qqff/
2.ryy	2.ryy	2.ryy	4cc\	4ee\
*	*	*	*2\right	*
*	*	*	*tremolo	*
.	.	.	8b-\L	8ee\L
.	.	.	8cc\	8dd\
.	.	.	8b-\	8ee\
.	.	.	8cc\J	8cc\J
*	*	*	*Xtremolo	*
=4	=4	=4	=4	=4
2.ryy	2.ryy	2.ryy	8a\L	8ff\L
.	.	.	8ff\J	8aa\J
.	.	.	4aa\	4ccc\
.	.	.	8a\L	8cc\L
.	.	.	8cc\J	8ff\J
=5	=5	=5	=5	=5
2.ryy	2.ryy	2.ryy	4ff\	4aa\
.	.	.	8a\L	8cc\L
.	.	.	8cc\J	8ff\J
.	.	.	4ff\	4aa\
=6	=6	=6	=6	=6
2.ryy	2.ryy	2.ryy	8cc\L	8ee\L
.	.	.	8ee\	8gg\
.	.	.	8gg\	8bb-\
.	.	.	8ff\	8aa\
.	.	.	8ee\	8gg\
.	.	.	8dd\J	8ff\J
=7	=7	=7	=7	=7
.	.	.	16qqcc/	16qqff/
2.ryy	2.ryy	2.ryy	4b-\	4ee\
.	.	.	8b-\L	8cc\L
.	.	.	8gg\	8bb-\
.	.	.	8ee\	8gg\
.	.	.	8b-\J	8ee\J
!	!	!	!	!LO:LB:g=original
=8	=8	=8	=8	=8
2ryy	2ryy	2ryy	2a\	2ff\
!	!	!	!LO:LB:g=original	!
=:|!|:	=:|!|:	=:|!|:	=:|!|:	=:|!|:
4ryy	4ryy	4ryy	8aa\L	8ccc\L
.	.	.	8ff\J	8aa\J
=9	=9	=9	=9	=9
2.ryy	2.ryy	2.ryy	8gg\L	8bb-\L
.	.	.	8ee\	8gg\
.	.	.	8ee\	8gg\
.	.	.	8bb-\	8ddd\
.	.	.	8aa\	8ccc\
.	.	.	8gg\J	8bb-\J
=10	=10	=10	=10	=10
2.ryy	2.ryy	2.ryy	8ff\L	8aa\L
.	.	.	8cc\J	8ff\J
*	*	*	*tremolo	*
.	.	.	8a\L	4ff\
.	.	.	8cc\	.
.	.	.	8a\	8aa\L
.	.	.	8cc\J	8ff\J
*	*	*	*Xtremolo	*
=11	=11	=11	=11	=11
*	*	*	*tremolo	*
2.ryy	2.ryy	2.ryy	8b-\L	8ee\L
.	.	.	8cc\	8gg\
.	.	.	8b-\	8cc\
.	.	.	8cc\	8bb-\
.	.	.	8b-\	8gg\
.	.	.	8cc\J	8ee\J
*	*	*	*Xtremolo	*
=12	=12	=12	=12	=12
2.ryy	2.ryy	2.ryy	8a\L	8ff\L
.	.	.	8cc\	8gg\
.	.	.	8ff\	8aa\
.	.	.	8gg\	8bb-\
.	.	.	8aa\	8ccc\
.	.	.	8ff\J	8aa\J
=13	=13	=13	=13	=13
2.ryy	2.ryy	2.ryy	8gg\L	8bb-\L
.	.	.	8ee\	8gg\
.	.	.	8ee\	8gg\
.	.	.	8bb-\	8ddd\
.	.	.	8aa\	8ccc\
.	.	.	8gg\J	8bb-\J
=14	=14	=14	=14	=14
2.ryy	2.ryy	2.ryy	8ff\L	8aa\L
.	.	.	8cc\J	8ff\J
*	*	*	*tremolo	*
.	.	.	8a\L	4ff\
.	.	.	8cc\	.
.	.	.	8a\	8aa\L
.	.	.	8cc\J	8ff\J
*	*	*	*Xtremolo	*
=15	=15	=15	=15	=15
2.ryy	2.ryy	2.ryy	8cc\L	8ee'>\L
.	.	.	8ee\	8gg\J
!	!	!	!	!LO:LB:g=original
.	.	.	8gg\	8bb-\L
.	.	.	8ff\	8aa\
.	.	.	8gg\	8bb-\
.	.	.	8b-\J	8gg\J
=16	=16	=16	=16	=16
2ryy	2ryy	2ryy	2a\	2ff\
==	==	==	==	==
*-	*-	*-	*-	*-
!!!system-decoration: [(g1)][(g2)]
!!!RDF**kern: | = vertical stroke
!!!RDF**kern: > = above
!!!RDF**kern: < = below
!!!ENC: Krzysztof Stępień
!!!END: 2021-06-16
!!!EED: Antoni Szymański
!!!EST: 2021-06-22
